Assets/LOMANIZED.svg

<svg width="234" height="67" viewBox="0 0 234 67" fill="none" xmlns="http://www.w3.org/2000/svg">
<path d="M0.393082 1.85799H11.2831V56.209H19.9951V67H0.393082V1.85799ZM33.934 67.99C25.519 67.99 21.757 64.624 21.757 56.704V12.154C21.757 4.234 25.519 0.867996 33.934 0.867996C42.349 0.867996 46.111 4.234 46.111 12.154V56.704C46.111 64.624 42.349 67.99 33.934 67.99ZM32.647 13.144V55.714C32.647 56.704 33.043 57.199 33.934 57.199C34.825 57.199 35.221 56.704 35.221 55.714V13.144C35.221 12.154 34.825 11.659 33.934 11.659C33.043 11.659 32.647 12.154 32.647 13.144ZM86.8363 1.85799V67H75.9463L77.8273 16.312L72.0853 67H63.9673L58.2253 16.312L60.1063 67H49.2163V1.85799H63.9673L68.0263 42.448L72.0853 1.85799H86.8363ZM88.5302 67L93.4802 1.85799H110.508L115.359 67H104.271L103.875 56.011H100.113L99.7172 67H88.5302ZM100.509 45.22H103.479L101.994 6.214L100.509 45.22ZM117.182 67V1.85799H127.676L134.606 39.478L133.022 1.85799H143.912V67H133.418L126.488 30.271L128.072 67H117.182ZM147.056 67V1.85799H157.946V67H147.056ZM160.382 67L159.788 63.634L171.569 12.649H162.164V1.85799H184.142V5.224L172.361 56.209H183.746V67H160.382ZM186.018 67V1.85799H206.412V12.649H196.908V27.598H205.422V38.29H196.908V56.209H206.412V67H186.018ZM209.318 67V1.85799H222.584C230.009 1.85799 233.672 5.323 233.672 12.352V56.506C233.672 63.535 230.009 67 222.584 67H209.318ZM220.208 56.209H221.099C222.188 56.209 222.782 55.516 222.782 54.229V14.629C222.782 13.342 222.188 12.649 221.099 12.649H220.208V56.209Z" fill="#ED150C"/>
</svg>

<svg xmlns="http://www.w3.org/2000/svg" width="234" height="67" fill="none"><path fill="#ED150C" d="M.393 1.858h10.89v54.351h8.712V67H.393zM33.934 67.99c-8.415 0-12.177-3.366-12.177-11.286v-44.55c0-7.92 3.762-11.286 12.177-11.286s12.177 3.366 12.177 11.286v44.55c0 7.92-3.762 11.286-12.177 11.286m-1.287-54.846v42.57c0 .99.396 1.485 1.287 1.485s1.287-.495 1.287-1.485v-42.57c0-.99-.396-1.485-1.287-1.485s-1.287.495-1.287 1.485m54.19-11.286V67h-10.89l1.88-50.688L72.085 67h-8.118l-5.742-50.688L60.106 67h-10.89V1.858h14.751l4.06 40.59 4.058-40.59zM88.53 67l4.95-65.142h17.028L115.359 67h-11.088l-.396-10.989h-3.762L99.717 67zm11.979-21.78h2.97l-1.485-39.006zM117.182 67V1.858h10.494l6.93 37.62-1.584-37.62h10.89V67h-10.494l-6.93-36.729L128.072 67zm29.874 0V1.858h10.89V67zm13.326 0-.594-3.366 11.781-50.985h-9.405V1.858h21.978v3.366l-11.781 50.985h11.385V67zm25.636 0V1.858h20.394v10.791h-9.504v14.949h8.514V38.29h-8.514v17.919h9.504V67zm23.3 0V1.858h13.266c7.425 0 11.088 3.465 11.088 10.494v44.154c0 7.029-3.663 10.494-11.088 10.494zm10.89-10.791h.891c1.089 0 1.683-.693 1.683-1.98v-39.6c0-1.287-.594-1.98-1.683-1.98h-.891z"/></svg>
